X: 148
T: Ribbon Dance
M:4/4
L:1/8
Q:160
S:Playford
O:Manuscript
A:English
K:G
d2 g3 a g2 fe|defg a3 f|g2 d2 e2 dc|B2 G2 G2 d2|d2 g3 a g2 fe|defg a3 f| g2 d2 e2 dc|B2 G2 G4:|
|:c2 e2 e2 dc|B2 d2 d2 cB|A2 e2 d2 c2|BcdB G2 B2| c2 e2 e2 dc|B2 d2 d2 g2|fgaf e2 f2 |g2 g2 g2 :|

